X: 10
T: 8B. THE CUCKOO'S NEST
B: Sam Bayard, "Hill Country Tunes" 1944 #8B
S: Played by Irvin Yaugher Jr, Mt. Independence PA, Oct 19 1943. Learned from his great-uncle.
R: reel
Z: 2010 John Chambers <jc:trillian.mit.edu>
M: C|
L: 1/8
K: Amix
He>f | edcd edcd | ecdB G2Bc | dBGB dBGB | dBcA G2z2 |
ABcd e2"a."af | ^/g2ec d2"b."^/c2 | "c"BcBA GABd | c2.A2 .A2 || z2 |
e2a2 a3f | b2a2 e3f | g2e2 g3e | a2g2 d3e |
| e3c A2e2 | g2ec d3^/c | BABA GABd | c2.A2 .A2 |]
P: VAR:
"a."a2 || "b."d2 || "c."cABA |] y8 y8 y8 y8 y8 y8

%%sep 2 1 500
%%sep 1 1 500

